img/icons/copy.svg

<svg width="16" height="16" viewBox="0 0 16 16" fill="none" xmlns="http://www.w3.org/2000/svg">
<path d="M12.5 6.99999H14.0714C14.5054 6.99999 14.8571 7.35177 14.8571 7.78571L14.8571 12.8571C14.8571 13.9617 13.9617 14.8571 12.8571 14.8571L7.78571 14.8571C7.35177 14.8571 6.99999 14.5054 6.99999 14.0714V12.5M8.57142 2.28571L3.85713 2.28571C2.98926 2.28571 2.28571 2.98926 2.28571 3.85713L2.28571 8.57142C2.28571 9.43929 2.98926 10.1428 3.85713 10.1428L8.57142 10.1428C9.4393 10.1428 10.1428 9.4393 10.1428 8.57142L10.1428 3.85713C10.1428 2.98926 9.4393 2.28571 8.57142 2.28571Z" stroke="#87909F" stroke-linecap="round"/>
</svg>

<svg width="16" height="16" viewBox="0 0 16 16" fill="none" xmlns="http://www.w3.org/2000/svg"><path d="M12.5 7h1.571c.434 0 .786.352.786.786v5.071a2 2 0 01-2 2H7.786A.786.786 0 017 14.071V12.5M8.571 2.286H3.857a1.57 1.57 0 00-1.571 1.571v4.714c0 .868.703 1.572 1.571 1.572h4.714c.868 0 1.572-.704 1.572-1.572V3.857c0-.868-.704-1.571-1.572-1.571z" stroke="#87909F" stroke-linecap="round"/></svg>
